X:1
T:Title
%%score { ( 1 4 5 ) | ( 2 3 6 ) }
L:1/8
Q:1/4=100
M:4/4
K:Eb
V:1 treble nm="Grand Piano"
V:4 treble 
V:5 treble 
V:2 bass 
V:3 bass 
V:6 bass 
V:1
 [EG]2 G2 G2 cd | [Ge]2 z2 c2 z2 | z4 z2 .[EG]2 |[M:7/8] [CE]2 [A,C]2 =B,2[K:bass] [E,C]- | %4
w: Johann~G.~Chr.~St�rl * * * *||||
[M:5/4] [E,C]2[K:treble] [CEG]2 [EG]2 [DG]2 [Ec][Fd] |[M:4/4] [Ge]2 z2 c2 z2 | z4 z2 .[EG]2 | %7
w: |||
[M:7/8] [CE]2 [A,C]2 =B,2[K:bass] [E,C]- |[M:5/4] [E,C]2[K:treble] [EGc]2 .[EAc]2 .[DFB]2 .[EG]2 | %9
w: ||
[M:4/4] [B,FB]2 [GB]-[DGB] =A2 B2 | d2 B2 [DG]2 [CGc]2 | [DGB]2 [EG=A]2 .[D_GA]2 [B,D=G]2 | %12
w: |||
 [EB]2 [Ec]2 [DB]2 [CA]-[CFA] | z2 E2 z4 | [B,EG]2 [CEG]2 [G,DG]2 [CF]2 | %15
w: |||
 .[=B,DG]2 [G,CE]2 [A,DF]2 [G,B,D]2 | [G,DG]2 [CEG]2 [DG]2 [Ec]d | [Ge]2 z2 c2 z2 | G2 A2 z CGF | %19
w: ||||
[M:3/4][K:bass] z2 C2 z2 | C2 z2 z2 |] %21
w: ||
V:2
 z4[K:treble] z2 .E2 | .[E,C]2 [G,=B,G]2[K:bass] .[A,CE]2 G,2 | C,2 z E B,,A,, z D | %3
[M:7/8] A,,2 F,,2 z F,C,- |[M:5/4] C,2 C,2 C2 B,2 [A,C]2 | %5
[M:4/4] .[E,C]2[K:treble] [G,=B,G]2 .[A,CE]2[K:bass] G,2 | C,2 z E B,,A,, z D | %7
[M:7/8] A,,2 F,,2 z F,C,- |[M:5/4] C,2 C,2 z G z A z A |[M:4/4] D,2 E,2[K:treble] [F,CF]2 [B,DF]2 | %10
 [_G,=A,D]2 [=G,DG]2 B,,2 E,2 | D,2 C,2 z C G,,2 | [E,G,]2 [A,,A,]2 [B,,F,]2 C,D, | z4 D2 z2 | %14
 E,D, C,2 B,,2 A,,2 | z F C,2 F,,2 G,,2 | =B,,2 C,2 _B,,2 z[K:treble] F | z2 G4 z2 | %18
 [=E,C]2 [F,CF]2 .[A,D]2 [G,=B,D]2 |[M:3/4] C,2 z2 =B,2 | [C,E,]2 z2 z2 |] %21
V:3
 [C,C]2 [CE]2[K:treble] [B,D]2 [A,C]-[A,CF] | x4[K:bass] x4 | z2 F,2 z2 G,,2 | %3
[M:7/8] z z z2 G,,2 z |[M:5/4] x10 |[M:4/4] x2[K:treble] x4[K:bass] x2 | z2 F,2 z2 G,,2 | %7
[M:7/8] z z z2 G,,2 z |[M:5/4] z4 A,,2 B,,2 C,2 |[M:4/4] x4[K:treble] x4 | x8 | z4 D,2 z2 | x8 | %13
 E,2 z2 z A, E,2 | x8 | G,,2 z2 z4 | z4 z2 A,,2[K:treble] | .[E,C]2 [G,=B,]2 [A,C]2 [G,DG]2 | x8 | %19
[M:3/4] z2 G,,4 | x6 |] %21
V:4
 x8 | z F, d2 z F [DG=B]2 | [CEG]2 .[A,CA]2 [B,DF]2 B,-[B,F] |[M:7/8] z2 D- D3[K:bass] z | %4
[M:5/4] x2[K:treble] x8 |[M:4/4] z F, d2 z F [DG=B]2 | [CEG]2 .[A,CA]2 [B,DF]2 B,-[B,F] | %7
[M:7/8] z2 D- D3[K:bass] z |[M:5/4] x2[K:treble] x8 |[M:4/4] z2 .E2 z4 | x8 | x8 | z4 z2 .E2 | %13
 [B,EG]2 [B,F]4 [G,B,E]2 | x8 | x8 | z4 z2 C2 | z F, d2 z _G =B2 | z4 F2 z2 | %19
[M:3/4][K:bass] [G,CE]2 [G,D-]3 [F,D] | x6 |] %21
V:5
 x8 | x8 | x8 |[M:7/8] z z z2 G, z2[K:bass] |[M:5/4] x2[K:treble] x8 |[M:4/4] x8 | x8 | %7
[M:7/8] z z z2 G, z2[K:bass] |[M:5/4] x2[K:treble] x8 |[M:4/4] x8 | x8 | x8 | x8 | x8 | x8 | x8 | %16
 x8 | x8 | x8 |[M:3/4][K:bass] x6 | x6 |] %21
V:6
 x4[K:treble] x4 | x4[K:bass] x4 | x8 |[M:7/8] x7 |[M:5/4] x10 | %5
[M:4/4] x2[K:treble] x4[K:bass] x2 | x8 |[M:7/8] x7 |[M:5/4] x10 |[M:4/4] x4[K:treble] x4 | x8 | %11
 x8 | x8 | z2 B,,4 z2 | x8 | x8 | x7[K:treble] x | x8 | x8 |[M:3/4] x6 | x6 |] %21

